papirus/16x16/mimetypes/application-x-iso.svg

<?xml version="1.0" encoding="UTF-8" standalone="no"?>
<svg
   xmlns:dc="http://purl.org/dc/elements/1.1/"
   xmlns:cc="http://creativecommons.org/ns#"
   xmlns:rdf="http://www.w3.org/1999/02/22-rdf-syntax-ns#"
   xmlns:svg="http://www.w3.org/2000/svg"
   xmlns="http://www.w3.org/2000/svg"
   xmlns:sodipodi="http://sodipodi.sourceforge.net/DTD/sodipodi-0.dtd"
   xmlns:inkscape="http://www.inkscape.org/namespaces/inkscape"
   id="svg2"
   height="16px"
   width="16px"
   version="1.1"
   viewBox="0 0 16 16"
   inkscape:version="0.91 r"
   sodipodi:docname="application-x-iso.svg">
  <defs
     id="defs12" />
  <sodipodi:namedview
     pagecolor="#ffffff"
     bordercolor="#666666"
     borderopacity="1"
     objecttolerance="10"
     gridtolerance="10"
     guidetolerance="10"
     inkscape:pageopacity="0"
     inkscape:pageshadow="2"
     inkscape:window-width="1535"
     inkscape:window-height="876"
     id="namedview10"
     showgrid="false"
     inkscape:zoom="20.86"
     inkscape:cx="-3.9322034"
     inkscape:cy="8"
     inkscape:window-x="65"
     inkscape:window-y="24"
     inkscape:window-maximized="1"
     inkscape:current-layer="svg2" />
  <metadata
     id="metadata19">
    <rdf:RDF>
      <cc:Work
         rdf:about="">
        <dc:format>image/svg+xml</dc:format>
        <dc:type
           rdf:resource="http://purl.org/dc/dcmitype/StillImage" />
      </cc:Work>
    </rdf:RDF>
  </metadata>
  <path
     style="fill:#c26375"
     inkscape:connector-curvature="0"
     d="M 2.75,1 C 2.33276,1 2,1.33276 2,1.75 l 0,13.5 C 2,15.667192 2.332808,16 2.75,16 l 10.5,0 C 13.6676,16 14,15.6676 14,15.25 L 14,5.5 9.875,5.125 9.5,1 Z"
     id="path5" />
  <path
     style="fill:#ffffff;fill-opacity:0.5019601"
     d="M 8 7.9003906 C 6.84224 7.9003906 5.9003906 8.84224 5.9003906 10 C 5.9003906 11.158 6.84224 12.099609 8 12.099609 C 9.15776 12.099609 10.099609 11.158 10.099609 10 C 10.099609 8.84224 9.15776 7.9003906 8 7.9003906 z M 8 9 C 8.5521333 9 9 9.4478667 9 10 C 9 10.552133 8.5521333 11 8 11 C 7.4478667 11 7 10.552133 7 10 C 7 9.4478667 7.4478667 9 8 9 z "
     id="path4152" />
  <path
     style="fill:#deb0b8"
     inkscape:connector-curvature="0"
     d="m 9.5,1 0,3.75 c 0,0.41256 0.33744,0.75 0.75,0.75 l 3.75,0 z"
     id="path9" />
  <path
     style="fill:#ffffff"
     d="M 8 6 C 5.7836308 6 4 7.7836308 4 10 C 4 12.216369 5.7836308 14 8 14 C 10.216369 14 12 12.216369 12 10 C 12 7.7836308 10.216369 6 8 6 z M 8 8 C 9.10624 8 10 8.8937601 10 10 C 10 11.106241 9.10624 12 8 12 C 6.89376 12 6 11.106241 6 10 C 6 8.8937601 6.89376 8 8 8 z "
     id="path4147" />
  <path
     style="fill:#ffffff;fill-opacity:0.10196001"
     inkscape:connector-curvature="0"
     d="M 2.75,1 C 2.33276,1 2,1.33276 2,1.75 l 0,0.6 C 2,1.93276 2.33276,1.6 2.75,1.6 l 6.75,0 0,-0.6 z"
     id="path13" />
</svg>

<?xml version="1.0" encoding="UTF-8" standalone="no"?>
<svg id="svg2" xmlns:rdf="http://www.w3.org/1999/02/22-rdf-syntax-ns#" xmlns="http://www.w3.org/2000/svg" height="16px" width="16px" version="1.1" xmlns:cc="http://creativecommons.org/ns#" viewBox="0 0 16 16" xmlns:dc="http://purl.org/dc/elements/1.1/">
 <metadata id="metadata19">
  <rdf:RDF>
   <cc:Work rdf:about="">
    <dc:format>image/svg+xml</dc:format>
    <dc:type rdf:resource="http://purl.org/dc/dcmitype/StillImage"/>
   </cc:Work>
  </rdf:RDF>
 </metadata>
 <path id="path5" fill="#c26375" d="m2.75 1c-0.4172 0-0.75 0.3328-0.75 0.75v13.5c0 0.417 0.3328 0.75 0.75 0.75h10.5c0.418 0 0.75-0.332 0.75-0.75v-9.75l-4.125-0.375-0.375-4.125z"/>
 <path id="path4152" fill-opacity=".50196" fill="#fff" d="m8 7.9004c-1.1578 0-2.0996 0.9418-2.0996 2.0996 0 1.158 0.9418 2.1 2.0996 2.1s2.1-0.942 2.1-2.1c0-1.1578-0.9422-2.0996-2.1-2.0996zm0 1.0996c0.5521 0 1 0.4479 1 1 0 0.552-0.4479 1-1 1s-1-0.448-1-1c0-0.5521 0.4479-1 1-1z"/>
 <path id="path9" fill="#deb0b8" d="m9.5 1v3.75c0 0.41256 0.33744 0.75 0.75 0.75h3.75z"/>
 <path id="path4147" fill="#fff" d="m8 6c-2.2164 0-4 1.7836-4 4 0 2.216 1.7836 4 4 4 2.216 0 4-1.784 4-4 0-2.2164-1.784-4-4-4zm0 2c1.1062 0 2 0.8938 2 2 0 1.106-0.8938 2-2 2s-2-0.894-2-2c0-1.1062 0.8938-2 2-2z"/>
 <path id="path13" fill-opacity=".10196" fill="#fff" d="m2.75 1c-0.4172 0-0.75 0.3328-0.75 0.75v0.6c0-0.4172 0.3328-0.75 0.75-0.75h6.75v-0.6z"/>
</svg>
